packages/smooth_app/assets/categories/cereals_and_potatoes.svg

<svg xmlns="http://www.w3.org/2000/svg" viewBox="0 0 48 60" xml:space="preserve"><path d="M13.1 21.5s.1 0 0 0c.1 0 .1 0 0 0 .1 0 .1 0 0 0 .1 0 .1 0 0 0 .1 0 .1 0 0 0 .1 0 .1 0 0 0 5-.1 9-4.1 9-9.1 0-.6-.5-1-1-1-2.4 0-4.6 1-6.3 2.7-.7.7-1.2 1.4-1.6 2.2-1.5-2.8-4.5-4.8-8-4.8-.6 0-1 .5-1 1 0 5 4 9 8.9 9zm3.1-6c1-1.1 2.4-1.8 3.8-2-.4 3-2.8 5.4-5.8 5.9.3-1.5.9-2.8 2-3.9zm-4.1 3.9c-3-.4-5.4-2.8-5.9-5.8 3 .5 5.4 2.8 5.9 5.8z"/><path d="M13.2 31.1s.1 0 0 0c.1 0 .1 0 0 0 .1 0 .1 0 0 0 .1 0 .1 0 0 0 2.5 0 4.7-1 6.4-2.7 1.7-1.7 2.6-4 2.6-6.4 0-.3-.1-.5-.3-.7s-.4-.3-.7-.3c-3.5 0-6.5 2-7.9 4.9-1.5-2.8-4.5-4.8-8-4.8-.3 0-.5.1-.7.3-.2.2-.3.4-.3.7 0 5.1 4 9 8.9 9zm6.9-7.9c-.2 1.5-.9 2.8-1.9 3.9-1 1.1-2.4 1.8-3.8 2 .4-3 2.7-5.4 5.7-5.9zm-7.9 5.9c-3-.4-5.4-2.8-5.9-5.7 3 .4 5.4 2.7 5.9 5.7z"/><path d="M21.3 30.8s-.1 0 0 0c-2.4 0-4.7 1-6.3 2.7-.7.7-1.2 1.4-1.6 2.2-1.5-2.8-4.5-4.8-8-4.8-.3 0-.5.1-.7.3-.2.2-.3.4-.3.7 0 4.6 3.6 8.4 8.1 8.8V47c0 .6.4 1 1 1s1-.4 1-1v-6.3c2-.2 3.9-1.2 5.3-2.6 1.7-1.7 2.6-4 2.6-6.4-.2-.5-.6-.9-1.1-.9zM6.4 33c3 .4 5.4 2.8 5.9 5.7-3-.4-5.4-2.7-5.9-5.7zm11.9 3.7c-1 1.1-2.4 1.8-3.8 2 .2-1.5.9-2.8 1.9-3.9 1-1.1 2.4-1.8 3.8-2-.2 1.5-.9 2.9-1.9 3.9zM9.3 10.2c.6 0 1-.4 1-1V3.8c0-.6-.4-1-1-1s-1 .4-1 1v5.4c0 .5.4 1 1 1zM13.2 13c.6 0 1-.4 1-1V1c0-.6-.4-1-1-1s-1 .4-1 1v11c0 .5.5 1 1 1zM17.2 10.2c.6 0 1-.4 1-1V3.8c0-.6-.4-1-1-1s-1 .4-1 1v5.4c0 .5.5 1 1 1zM34.7 21.5c.1 0 .1 0 0 0 .1 0 .1 0 0 0 .1 0 .1 0 0 0 .1 0 .1 0 0 0 .1 0 .1 0 0 0 5-.1 9-4.1 9-9.1 0-.5-.5-1-1-1-3.5 0-6.5 2-7.9 4.9-1.5-2.8-4.5-4.8-8-4.8-.6 0-1 .5-1 1 0 5 4 9 8.9 9zm6.9-8c-.4 3-2.8 5.4-5.8 5.9.5-3 2.8-5.4 5.8-5.9zm-7.9 5.9c-3-.4-5.4-2.8-5.9-5.8 3 .5 5.4 2.8 5.9 5.8z"/><path d="M34.8 31.1c.1 0 .1 0 0 0 .1 0 .1 0 0 0 .1 0 .1 0 0 0 2.5 0 4.7-1 6.4-2.7 1.7-1.7 2.6-4 2.6-6.4 0-.3-.1-.5-.3-.7-.2-.2-.4-.3-.7-.3-3.5 0-6.5 2-7.9 4.9-1.5-2.8-4.5-4.8-8-4.8-.3 0-.5.1-.7.3-.2.2-.3.4-.3.7 0 5.1 4 9 8.9 9zm6.9-7.9c-.2 1.5-.9 2.8-1.9 3.9-1 1.1-2.4 1.8-3.8 2 .4-3 2.7-5.4 5.7-5.9zm-7.9 5.9c-3-.4-5.4-2.8-5.9-5.7 3 .4 5.4 2.7 5.9 5.7z"/><path d="M43.8 31.7c0-.5-.5-1-1-1-2.4 0-4.6 1-6.3 2.7-.7.7-1.2 1.4-1.6 2.2-1.5-2.8-4.5-4.8-8-4.8-.3 0-.5.1-.7.3-.2.2-.3.4-.3.7 0 4.6 3.6 8.4 8.1 8.8V47c0 .6.4 1 1 1s1-.4 1-1v-6.3c2-.2 3.9-1.2 5.3-2.6 1.7-1.7 2.6-4 2.5-6.4zM28 33c3 .4 5.4 2.8 5.9 5.7-3-.4-5.4-2.7-5.9-5.7zm8 5.7c.2-1.5.9-2.8 1.9-3.9 1-1.1 2.4-1.8 3.8-2-.2 1.5-.9 2.8-1.9 3.9-1 1.1-2.3 1.8-3.8 2zM30.9 10.2c.6 0 1-.4 1-1V3.8c0-.6-.4-1-1-1s-1 .4-1 1v5.4c0 .5.4 1 1 1zM34.8 13c.6 0 1-.4 1-1V1c0-.6-.4-1-1-1s-1 .4-1 1v11c0 .5.5 1 1 1zM38.8 10.2c.6 0 1-.4 1-1V3.8c0-.6-.4-1-1-1s-1 .4-1 1v5.4c0 .5.4 1 1 1z"/><text y="63" font-size="5" font-weight="bold" font-family="'Helvetica Neue', Helvetica, Arial-Unicode, Arial, Sans-serif">Created by Vectors Market</text><text y="68" font-size="5" font-weight="bold" font-family="'Helvetica Neue', Helvetica, Arial-Unicode, Arial, Sans-serif">from the Noun Project</text></svg>

<svg xmlns="http://www.w3.org/2000/svg" xmlns:xlink="http://www.w3.org/1999/xlink" version="1.1" x="0px" y="0px" viewBox="0 0 48 60" enable-background="new 0 0 48 48" xml:space="preserve"><g><path d="M13.1,21.5C13.1,21.5,13.2,21.5,13.1,21.5C13.2,21.5,13.2,21.5,13.1,21.5C13.2,21.5,13.2,21.5,13.1,21.5   C13.2,21.5,13.2,21.5,13.1,21.5C13.2,21.5,13.2,21.5,13.1,21.5C13.2,21.5,13.2,21.5,13.1,21.5c5-0.1,9-4.1,9-9.1c0-0.6-0.5-1-1-1   c-2.4,0-4.6,1-6.3,2.7c-0.7,0.7-1.2,1.4-1.6,2.2c-1.5-2.8-4.5-4.8-8-4.8c-0.6,0-1,0.5-1,1C4.2,17.5,8.2,21.5,13.1,21.5z M16.2,15.5   c1-1.1,2.4-1.8,3.8-2c-0.4,3-2.8,5.4-5.8,5.9C14.5,17.9,15.1,16.6,16.2,15.5z M12.1,19.4c-3-0.4-5.4-2.8-5.9-5.8   C9.2,14.1,11.6,16.4,12.1,19.4z"/><path d="M13.2,31.1C13.2,31.1,13.3,31.1,13.2,31.1C13.3,31.1,13.3,31.1,13.2,31.1C13.3,31.1,13.3,31.1,13.2,31.1   C13.3,31.1,13.3,31.1,13.2,31.1c2.5,0,4.7-1,6.4-2.7c1.7-1.7,2.6-4,2.6-6.4c0-0.3-0.1-0.5-0.3-0.7s-0.4-0.3-0.7-0.3   c-3.5,0-6.5,2-7.9,4.9c-1.5-2.8-4.5-4.8-8-4.8c-0.3,0-0.5,0.1-0.7,0.3c-0.2,0.2-0.3,0.4-0.3,0.7C4.3,27.2,8.3,31.1,13.2,31.1z    M20.1,23.2c-0.2,1.5-0.9,2.8-1.9,3.9c-1,1.1-2.4,1.8-3.8,2C14.8,26.1,17.1,23.7,20.1,23.2z M12.2,29.1c-3-0.4-5.4-2.8-5.9-5.7   C9.3,23.8,11.7,26.1,12.2,29.1z"/><path d="M21.3,30.8C21.3,30.8,21.2,30.8,21.3,30.8c-2.4,0-4.7,1-6.3,2.7c-0.7,0.7-1.2,1.4-1.6,2.2c-1.5-2.8-4.5-4.8-8-4.8   c-0.3,0-0.5,0.1-0.7,0.3c-0.2,0.2-0.3,0.4-0.3,0.7c0,4.6,3.6,8.4,8.1,8.8V47c0,0.6,0.4,1,1,1c0.6,0,1-0.4,1-1v-6.3   c2-0.2,3.9-1.2,5.3-2.6c1.7-1.7,2.6-4,2.6-6.4C22.2,31.2,21.8,30.8,21.3,30.8z M6.4,33c3,0.4,5.4,2.8,5.9,5.7   C9.3,38.3,6.9,36,6.4,33z M18.3,36.7c-1,1.1-2.4,1.8-3.8,2c0.2-1.5,0.9-2.8,1.9-3.9c1-1.1,2.4-1.8,3.8-2   C20,34.3,19.3,35.7,18.3,36.7z"/><path d="M9.3,10.2c0.6,0,1-0.4,1-1V3.8c0-0.6-0.4-1-1-1c-0.6,0-1,0.4-1,1v5.4C8.3,9.7,8.7,10.2,9.3,10.2z"/><path d="M13.2,13c0.6,0,1-0.4,1-1V1c0-0.6-0.4-1-1-1c-0.6,0-1,0.4-1,1v11C12.2,12.5,12.7,13,13.2,13z"/><path d="M17.2,10.2c0.6,0,1-0.4,1-1V3.8c0-0.6-0.4-1-1-1c-0.6,0-1,0.4-1,1v5.4C16.2,9.7,16.7,10.2,17.2,10.2z"/><path d="M34.7,21.5C34.7,21.5,34.7,21.5,34.7,21.5C34.8,21.5,34.8,21.5,34.7,21.5C34.8,21.5,34.8,21.5,34.7,21.5   C34.8,21.5,34.8,21.5,34.7,21.5C34.8,21.5,34.8,21.5,34.7,21.5C34.8,21.5,34.8,21.5,34.7,21.5c5-0.1,9-4.1,9-9.1c0-0.5-0.5-1-1-1   c0,0,0,0,0,0c-3.5,0-6.5,2-7.9,4.9c-1.5-2.8-4.5-4.8-8-4.8c-0.6,0-1,0.5-1,1C25.8,17.5,29.8,21.5,34.7,21.5z M41.6,13.5   c-0.4,3-2.8,5.4-5.8,5.9C36.3,16.4,38.6,14,41.6,13.5z M33.7,19.4c-3-0.4-5.4-2.8-5.9-5.8C30.8,14.1,33.2,16.4,33.7,19.4z"/><path d="M34.8,31.1C34.8,31.1,34.8,31.1,34.8,31.1C34.9,31.1,34.9,31.1,34.8,31.1C34.9,31.1,34.9,31.1,34.8,31.1   C34.9,31.1,34.9,31.1,34.8,31.1c2.5,0,4.7-1,6.4-2.7c1.7-1.7,2.6-4,2.6-6.4c0-0.3-0.1-0.5-0.3-0.7c-0.2-0.2-0.4-0.3-0.7-0.3   c-3.5,0-6.5,2-7.9,4.9c-1.5-2.8-4.5-4.8-8-4.8c-0.3,0-0.5,0.1-0.7,0.3c-0.2,0.2-0.3,0.4-0.3,0.7C25.9,27.2,29.9,31.1,34.8,31.1z    M41.7,23.2c-0.2,1.5-0.9,2.8-1.9,3.9c-1,1.1-2.4,1.8-3.8,2C36.4,26.1,38.7,23.7,41.7,23.2z M33.8,29.1c-3-0.4-5.4-2.8-5.9-5.7   C30.9,23.8,33.3,26.1,33.8,29.1z"/><path d="M43.8,31.7c0-0.5-0.5-1-1-1c0,0,0,0,0,0c-2.4,0-4.6,1-6.3,2.7c-0.7,0.7-1.2,1.4-1.6,2.2c-1.5-2.8-4.5-4.8-8-4.8   c-0.3,0-0.5,0.1-0.7,0.3c-0.2,0.2-0.3,0.4-0.3,0.7c0,4.6,3.6,8.4,8.1,8.8V47c0,0.6,0.4,1,1,1c0.6,0,1-0.4,1-1v-6.3   c2-0.2,3.9-1.2,5.3-2.6C43,36.4,43.9,34.1,43.8,31.7z M28,33c3,0.4,5.4,2.8,5.9,5.7C30.9,38.3,28.5,36,28,33z M36,38.7   c0.2-1.5,0.9-2.8,1.9-3.9c1-1.1,2.4-1.8,3.8-2c-0.2,1.5-0.9,2.8-1.9,3.9C38.8,37.8,37.5,38.5,36,38.7z"/><path d="M30.9,10.2c0.6,0,1-0.4,1-1V3.8c0-0.6-0.4-1-1-1s-1,0.4-1,1v5.4C29.9,9.7,30.3,10.2,30.9,10.2z"/><path d="M34.8,13c0.6,0,1-0.4,1-1V1c0-0.6-0.4-1-1-1c-0.6,0-1,0.4-1,1v11C33.8,12.5,34.3,13,34.8,13z"/><path d="M38.8,10.2c0.6,0,1-0.4,1-1V3.8c0-0.6-0.4-1-1-1s-1,0.4-1,1v5.4C37.8,9.7,38.2,10.2,38.8,10.2z"/></g><text x="0" y="63" fill="#000000" font-size="5px" font-weight="bold" font-family="'Helvetica Neue', Helvetica, Arial-Unicode, Arial, Sans-serif">Created by Vectors Market</text><text x="0" y="68" fill="#000000" font-size="5px" font-weight="bold" font-family="'Helvetica Neue', Helvetica, Arial-Unicode, Arial, Sans-serif">from the Noun Project</text></svg>
